icons/fm-diamond-exclamation.svg

<svg
  viewBox="0 0 16 16"
  xmlns="http://www.w3.org/2000/svg"
>
  <path
    d="M 8,0 C 7.15628,0 6.31736,0.331398 5.67377,0.975793 L 0.970891,5.67867 c -1.287988,1.28719 -1.287988,3.36527 0,4.65243 L 5.67377,15.034 c 1.28719,1.288 3.36527,1.288 4.65243,0 l 4.7029,-4.7029 c 1.288,-1.28716 1.288,-3.36524 0,-4.65243 L 10.3262,0.975793 C 9.68263,0.331398 8.84371,0 8,0 Z m 0,1.60098 c 0.43386,0 0.86933,0.1689 1.20073,0.50031 l 4.70287,4.70288 c 0.662,0.662 0.662,1.73866 0,2.40147 L 9.20073,13.9085 c -0.662,0.662 -1.73866,0.662 -2.40147,0 L 2.09638,9.20564 c -0.662,-0.66201 -0.662,-1.73867 0,-2.40147 L 6.79926,2.10129 C 7.13066,1.76988 7.56613,1.60098 8,1.60098 Z m 0,2.40147 c -0.44187,0 -0.80049,0.35862 -0.80049,0.80049 v 4.00245 c 0,0.44187 0.35862,0.80049 0.80049,0.80049 0.44187,0 0.80049,-0.35862 0.80049,-0.80049 V 4.80294 C 8.80049,4.36107 8.44187,4.00245 8,4.00245 Z m 0,6.40395 c -0.44187,0 -0.80049,0.3586 -0.80049,0.8005 0,0.4418 0.35862,0.8004 0.80049,0.8004 0.44187,0 0.80049,-0.3586 0.80049,-0.8004 C 8.80049,10.765 8.44187,10.4064 8,10.4064 Z"
  />
</svg>

<svg
  viewBox="0 0 16 16"
  xmlns="http://www.w3.org/2000/svg"
>
  <path
    d="M7.9951 0C7.15138 0 6.31246 0.331398 5.66887 0.975793L0.965991 5.67867C-0.321997 6.96586 -0.321997 9.04394 0.965991 10.3311L5.66887 15.034C6.95606 16.322 9.03414 16.322 10.3213 15.034L15.0242 10.3311C16.3122 9.04394 16.3122 6.96586 15.0242 5.67867L10.3213 0.975793C9.67773 0.331398 8.83881 0 7.9951 0ZM7.9951 1.60098C8.42896 1.60098 8.86443 1.76988 9.19583 2.10129L13.8987 6.80417C14.5607 7.46617 14.5607 8.54283 13.8987 9.20564L9.19583 13.9085C8.53383 14.5705 7.45717 14.5705 6.79436 13.9085L2.09148 9.20564C1.42948 8.54363 1.42948 7.46697 2.09148 6.80417L6.79436 2.10129C7.12576 1.76988 7.56123 1.60098 7.9951 1.60098ZM7.9951 4.00245C7.55323 4.00245 7.19461 4.36107 7.19461 4.80294V8.80539C7.19461 9.24726 7.55323 9.60588 7.9951 9.60588C8.43697 9.60588 8.79559 9.24726 8.79559 8.80539V4.80294C8.79559 4.36107 8.43697 4.00245 7.9951 4.00245ZM7.9951 10.4064C7.55323 10.4064 7.19461 10.765 7.19461 11.2069C7.19461 11.6487 7.55323 12.0073 7.9951 12.0073C8.43697 12.0073 8.79559 11.6487 8.79559 11.2069C8.79559 10.765 8.43697 10.4064 7.9951 10.4064Z"
  />
</svg>
